X:1
T:Title
%%score ( 1 2 ) { 3 | 4 }
L:1/8
Q:1/4=130
M:3/4
K:Eb
V:1 treble nm="Grand Piano, Soprano"
V:2 treble 
V:3 bass nm="Choir Pad, Narrow and Strait"
V:4 bass 
V:1
 [EG]2 [E_G]2 [E=G]2 | [GB]2 [EG]2 z2 | [CE]2 [CA]2 [Ec]2 | [EB]4 z2 | [DG]2 [DF]2 [_D=E]2 | %5
w: By~George~Frederick~Root * *|||||
 [DF]2 [DG]2 [DF]2 | E2 [Ee]2 [Ec]2 | [EB]4 z2 | [EG]2 [E_G]2 [E=G]2 | [GB]2 [EG]2 z2 | %10
w: |||||
 [GB]2 [_G=A]2 [=GB]2 | [Ac]4 z2 | [Ad]2 [Ac]2 [Fd]2 | [Ee]2 [EG]2 [E=A]2 | [EB]2 [Dc]2 [DB]2 | %15
w: |||||
 E4 z2 | G2 F2 E2 | B6- | B6- | B4 z2 | G2 F2 E2 | B6- | B6- | B4 z2 | [Fd]2 [Ec]2 [DB]2 | %25
w: ||||||||||
 [Ee]2 [EG]2 [E=A]2 | [EB]2 [Dc]2 [DB]2 | E6- | E2 z2 z2 |] %29
w: ||||
V:2
 x6 | x6 | x6 | x6 | x6 | x6 | x6 | x6 | x6 | x6 | x6 | x6 | x6 | x6 | x6 | x6 | x6 | x6 | %18
 D2 E2 F2 | E4 z2 | x6 | x6 | D2 E2 F2 | E4 z2 | x6 | x6 | x6 | x6 | x6 |] %29
V:3
 B,2 =A,2 B,2 | E2 B,2 z2 | A,2 A,2 A,2 | G,4 z2 | B,2 A,2 G,2 | A,2 B,2 A,2 | G,2 C2 A,2 | %7
 G,4 z2 | B,2 =A,2 B,2 | E2 B,2 z2 | E2 E2 E2 | E4 z2 | B,2 F,2 A,2 | G,2 G,2 _G,2 | G,2 A,2 A,2 | %15
 G,4 z2 | z6 | z6 | F,2 G,2 A,2 | G,4 z2 | z6 | z6 | F,2 G,2 A,2 | G,4 z2 | A,2 A,2 A,2 | %25
 G,2 G,2 _G,2 | G,2 A,2 A,2 | G,6- | G,2 z2 z2 |] %29
V:4
 E,2 E,2 E,2 | E,2 E,2 z2 | E,2 E,2 E,2 | E,4 z2 | B,,2 B,,2 B,,2 | B,,2 B,,2 B,,2 | E,2 E,2 E,2 | %7
 E,4 z2 | E,2 E,2 E,2 | E,2 E,2 z2 | E,2 E,2 E,2 | A,,4 z2 | B,,2 B,,2 B,,2 | C,2 C,2 C,2 | %14
 B,,2 B,,2 B,,2 | E,4 z2 | z6 | z6 | B,,2 B,,2 B,,2 | E,4 z2 | z6 | z6 | B,,2 B,,2 B,,2 | E,4 z2 | %24
 B,,2 B,,2 B,,2 | C,2 C,2 C,2 | B,,2 B,,2 B,,2 | E,6- | E,2 z2 z2 |] %29

